X:1
T: Oberek/Polish or Italian Dance
C:Kammen Collection, Vol. 1
C:Arr. T. Traub, 22-Apr-03
Z:Kammen Collection, Vol. 1
Z:Poland, Italy
R:Waltz
M:3/8
K: C
L: 1/16
|: "C" (3 gag ecea| (3 gag e2c2|"G" (3ded BGAB|"C"c>e g2c'2|"C" (3 gag ecea| (3 gag e2c2|"G" (3ded BGAB|"C"c2c2 z2 :|
K: G
"D"(3 ded ^cdef|"G"g>b e'2d'2|"D" d'2 =c'bc'a|"G"b2 agfe|"D"(3 ded ^cdef|
"G"g>b e'2d'2|"D" d'2 =c'bc'a|"G"g2>f2 af|g2>f2 af| (3 gfa (3gfa (3gfa|"G7"(3 gfa (3gfa (3gfa||
K: C
"C" (3 gag ecea| (3 gag e2c2|"G" (3ded BGAB|"C"c>e g2c'2|"C" (3 gag ecea| (3 gag e2c2|"G" (3ded BGAB|"C"c2c2 "fine"z2 ||
K: F
M:3/8
"F".a>.a a2b2|c'4 a2|"Bb".b->.a b2 d'2|"F"c'4 a2|"F".a>.a a2b2|c'4 a2|"C"gabcde|"F"f2f2 z2||
K: C
"C"e>e e2f2|g4 e2|"F"f>e f2a2|"C"g4 e2|"C"e>e e2f2|g4 e2|"G"defgab|"C"c'2.=b2-._b2||
K: F
"F".a>.a a2b2|c'4 a2|"Bb".b->.a b2 d'2|"F"c'4 a2|"F".a>.a a2b2|c'4 a2|"C"gabcde|"F"f2"DC al fine"f2 z2|]
